src/assets/IconPick.svg

<svg xmlns="http://www.w3.org/2000/svg" viewBox="0 0 24 24"><path d="M18,13H17.32L15.32,15H17.23L19,17H5L6.78,15H8.83L6.83,13H6L3,16V20A2,2 0 0,0 5,22H19A2,2 0 0,0 21,20V16L18,13M17,7.95L12.05,12.9L8.5,9.36L13.46,4.41L17,7.95M12.76,2.29L6.39,8.66C6,9.05 6,9.68 6.39,10.07L11.34,15C11.73,15.41 12.36,15.41 12.75,15L19.11,8.66C19.5,8.27 19.5,7.64 19.11,7.25L14.16,2.3C13.78,1.9 13.15,1.9 12.76,2.29Z" /></svg>

<svg xmlns="http://www.w3.org/2000/svg" viewBox="0 0 24 24">
  <path
    d="M18 13h-.7l-2 2h2l1.7 2H5l1.8-2h2l-2-2H6l-3 3v4a2 2 0 0 0 2 2h14a2 2 0 0 0 2-2v-4zm-1-5-5 4.9-3.5-3.5 5-5zm-4.2-5.7L6.4 8.7a1 1 0 0 0 0 1.4l5 4.9q.6.6 1.3 0l6.4-6.3q.6-.7 0-1.4l-5-5a1 1 0 0 0-1.3 0" />
</svg>
